src/svg/ui/chat-icon.svg

<?xml version="1.0" encoding="UTF-8" standalone="no"?><svg xmlns="http://www.w3.org/2000/svg" id="Layer_1" data-name="Layer 1" viewBox="0 0 81.180012 68.39001" version="1.1" width="81.180008" height="68.390007"><defs id="defs4"><style id="style2">.cls-1{fill:#ff4900;}</style></defs><title id="title6">livechat</title><path class="cls-1" d="m 68.480004,3.9432189e-6 h -55.79 A 12.69,12.69 0 0 0 3.9401109e-6,12.700004 v 27.26 A 12.69,12.69 0 0 0 12.690004,52.650004 h 4.3 l -5.37,10.74 a 3.47,3.47 0 0 0 -0.37,1.55 3.48,3.48 0 0 0 3.46,3.45 3.57,3.57 0 0 0 1.92,-0.58 l 22.76,-15.16 h 29.09 a 12.7,12.7 0 0 0 12.7,-12.69 v -27.26 A 12.69,12.69 0 0 0 68.480004,3.9432189e-6 Z M 75.600004,40.000004 a 7.13,7.13 0 0 1 -7.12,7.07 h -30.78 l -17.51,11.66 5.83,-11.66 h -13.33 a 7.13,7.13 0 0 1 -7.1100001,-7.11 v -27.26 A 7.13,7.13 0 0 1 12.690004,5.5800039 h 55.79 a 7.14,7.14 0 0 1 7.12,7.1200001 z" id="path8"/></svg>

<svg xmlns="http://www.w3.org/2000/svg" data-name="Layer 1" width="81.18" height="68.39"><path d="M68.48 0H12.69A12.69 12.69 0 0 0 0 12.7v27.26a12.69 12.69 0 0 0 12.69 12.69h4.3l-5.37 10.74a3.47 3.47 0 0 0-.37 1.55 3.48 3.48 0 0 0 3.46 3.45 3.57 3.57 0 0 0 1.92-.58l22.76-15.16h29.09a12.7 12.7 0 0 0 12.7-12.69V12.7A12.69 12.69 0 0 0 68.48 0zm7.12 40a7.13 7.13 0 0 1-7.12 7.07H37.7L20.19 58.73l5.83-11.66H12.69a7.13 7.13 0 0 1-7.11-7.11V12.7a7.13 7.13 0 0 1 7.11-7.12h55.79a7.14 7.14 0 0 1 7.12 7.12z" style="fill:#ff4900"/></svg>
